assets/linux.svg

<svg width="100%" height="100%" viewBox="0 0 1000 1000" xmlns="http://www.w3.org/2000/svg">
     <g transform="matrix(6.24968,0,0,6.24968,103.284,100.02)">
        <path d="M67.46,0C68.38,0.23 69.31,0.44 70.22,0.69C77.08,2.57 80.81,7.48 83,13.91C84.234,18.058 84.906,22.353 85,26.68C85.2,30.28 85.48,33.89 85.94,37.47C86.424,40.058 87.502,42.499 89.09,44.6C93.86,51.76 98.67,58.9 103.28,66.18C106.544,71.076 108.018,76.953 107.45,82.81C107.25,84.75 106.89,86.67 106.55,88.59C106.341,89.211 106.478,89.898 106.91,90.39C108.499,92.129 109.344,94.425 109.26,96.78C109.135,99.52 110.651,102.086 113.11,103.3C113.645,103.62 114.2,103.907 114.77,104.16C118.87,105.85 118.98,109.89 115.52,112.47C114.737,113.019 113.926,113.526 113.09,113.99L98.09,122.9C97.768,123.095 97.469,123.327 97.2,123.59C95.14,125.59 92.93,127.39 89.99,128L86.21,128C83.543,127.257 81.316,125.412 80.09,122.93C79.767,122.575 79.327,122.348 78.85,122.29C71.666,120.772 64.266,120.568 57.01,121.69C55.21,121.97 53.39,122.19 51.6,122.57C50.997,122.737 50.47,123.109 50.11,123.62C48.11,126.38 45.48,127.75 42.24,127.03C38.282,126.12 34.382,124.975 30.56,123.6C26.191,122.142 21.7,121.081 17.14,120.43C15.021,120.023 12.961,119.351 11.01,118.43C9.11,117.6 8.61,116.06 9.2,114.07C9.763,112.553 10.221,111 10.57,109.42C10.72,107.827 10.72,106.223 10.57,104.63C10.465,104.017 10.304,103.414 10.09,102.83C9.23,99.41 10.34,97.47 13.7,96.51C15.26,96.07 16.84,95.72 18.38,95.22C20.629,94.512 22.496,92.919 23.55,90.81C24.259,89.748 25.051,88.745 25.92,87.81C26.188,87.499 26.331,87.1 26.32,86.69C25.58,83.84 26.21,81.25 27.37,78.6C29.1,74.6 30.71,70.54 32.12,66.42C33.913,61.282 36.579,56.492 40,52.26C41.24,50.69 42.3,48.97 43.63,47.49C45.814,44.981 46.896,41.695 46.63,38.38C46.42,32.73 46.06,27.08 45.86,21.38C45.646,18.019 45.96,14.644 46.79,11.38C48.35,5.92 52.2,2.87 57.37,1.23C59.06,0.72 60.78,0.41 62.46,0L67.46,0ZM87.91,89C89.33,83.684 89.46,78.106 88.29,72.73C86.53,65.44 83.57,58.56 80.54,51.73C78.68,47.55 76.61,43.48 74.64,39.36C74.497,38.859 74.036,38.511 73.515,38.511C73.265,38.511 73.021,38.591 72.82,38.74C71,39.65 69.17,40.54 67.37,41.47C64.89,42.69 62.44,44 60,45.28C58.914,45.873 57.596,45.873 56.51,45.28C55.021,44.469 53.588,43.561 52.22,42.56C51.225,41.765 50.28,40.91 49.39,40L49.39,41.91C49.006,45.435 47.767,48.813 45.78,51.75C44.596,53.545 43.575,55.443 42.73,57.42C41.22,61.02 40.2,64.84 38.44,68.3C36.335,72.077 35.012,76.24 34.55,80.54C34.27,84.54 34.69,88.3 37.98,91.14C39.46,92.42 40.98,93.69 42.42,94.97C44.72,96.97 47.07,98.88 49.27,100.97C50.591,102.11 50.882,104.065 49.95,105.54C49.116,106.524 48.174,107.409 47.14,108.18C48.59,109.84 50.24,111.76 51.95,113.64C52.259,113.902 52.656,114.037 53.06,114.02C56.76,113.97 60.46,114.02 64.14,113.78C71.33,113.37 76.86,109.78 81.42,104.45C81.862,103.873 82.12,103.176 82.16,102.45C82.39,98.68 82.52,94.89 82.7,91.11C82.675,90.024 83.508,89.094 84.59,89C85.696,88.935 86.804,88.935 87.91,89ZM47.64,116.64C47.362,115.561 46.952,114.52 46.42,113.54C44.79,111.04 42.86,108.73 41.22,106.23C39.12,103.04 37.3,99.66 35.15,96.49C33.913,94.673 32.463,93.012 30.83,91.54C29.09,89.97 27.83,90.36 26.64,92.42C26.1,93.42 25.56,94.42 25.05,95.42C24.396,96.729 23.187,97.677 21.76,98C20.15,98.4 18.53,98.78 16.93,99.21C14.25,99.92 13.76,100.7 14.36,103.42C14.929,105.735 14.821,108.165 14.05,110.42C13.749,111.281 13.498,112.159 13.3,113.05C12.88,114.9 13.3,115.71 15.15,116.19C16.395,116.516 17.657,116.773 18.93,116.96C23.589,117.553 28.145,118.781 32.47,120.61C34.905,121.656 37.424,122.495 40,123.12C43.74,124.08 47.66,121 47.64,116.64ZM88.57,93.06C87.02,92.69 86.4,93.06 86.43,94.59C86.43,96.75 86.65,98.91 86.7,101.07C86.81,105.77 85.7,110.31 84.83,114.89C84.282,117.145 84.641,119.527 85.83,121.52C87.12,123.52 89,124.3 91.19,123.31C92.906,122.561 94.496,121.549 95.9,120.31C98.407,117.934 101.231,115.915 104.29,114.31C106.15,113.38 107.99,112.4 109.81,111.42C110.841,110.885 111.843,110.294 112.81,109.65C114.03,108.83 114.06,107.97 112.91,107.05C112.179,106.431 111.373,105.907 110.51,105.49C108.2,104.516 106.545,102.422 106.13,99.95C105.92,98.95 105.97,97.79 105.75,96.74C105.509,95.894 105.202,95.068 104.83,94.27C104.47,94.51 104.38,94.54 104.34,94.61C104.238,94.74 104.151,94.881 104.08,95.03C102.17,98.84 98.91,100.5 94.82,100.79C91.61,101.02 89.64,99.59 88.96,96.46C88.771,95.334 88.64,94.199 88.57,93.06ZM58.84,42.54L58.91,42.71C59.726,42.452 60.524,42.142 61.3,41.78C64.033,40.28 66.743,38.743 69.43,37.17C70.25,36.69 71.7,36.41 71.43,35.26C71.02,34.296 70.248,33.531 69.28,33.13C66.577,31.941 63.813,30.897 61,30C60.067,29.721 59.06,29.822 58.2,30.28C55.79,31.9 53.53,33.73 51.26,35.55C51.007,35.911 50.933,36.368 51.06,36.79C51.57,38.54 56.89,42.45 58.74,42.51L58.84,42.54ZM70,30.24C71.39,31.04 71.56,31.02 72.5,30.04C75.299,26.936 75.51,22.242 73,18.9C72.005,17.537 70.415,16.729 68.727,16.729C67.145,16.729 65.644,17.438 64.64,18.66C62.92,20.552 62.199,23.153 62.7,25.66C63.02,27.66 63.56,28.23 65.41,28.39C65.442,27.013 65.593,25.641 65.86,24.29C66.158,23.015 67.31,22.109 68.62,22.12C69.952,22.162 71.115,23.055 71.5,24.33C72.353,26.41 71.742,28.819 70,30.24ZM54.94,28.47C55.72,28.01 56.4,27.63 57.06,27.21C57.258,27.076 57.397,26.873 57.45,26.64C57.974,24.202 57.431,21.653 55.96,19.64C54.18,17.33 51.55,17.31 49.73,19.58C48.288,21.41 47.662,23.755 48,26.06C48.27,28.39 49,30.5 51.31,31.8L53,30.37C51.066,29.74 49.748,27.926 49.748,25.891C49.748,25.374 49.833,24.86 50,24.37C50.27,23.37 50.79,22.3 51.88,22.37C52.758,22.492 53.555,22.951 54.1,23.65C55.142,25.025 55.455,26.823 54.94,28.47Z" style="fill-rule:nonzero;"/>
    </g>
</svg>

<svg id="Ebene_1" data-name="Ebene 1" xmlns="http://www.w3.org/2000/svg" viewBox="0 0 128 128">
  <title>LinuxIconplant</title>
  <g id="ju26u5.tif">
    <path d="M67.46,0c.92.23,1.85.44,2.76.69C77.08,2.57,80.81,7.48,83,13.91a48.49,48.49,0,0,1,2,12.77c.2,3.6.48,7.21.94,10.79a17,17,0,0,0,3.15,7.13c4.77,7.16,9.58,14.3,14.19,21.58a25.54,25.54,0,0,1,4.17,16.63c-.2,1.94-.56,3.86-.9,5.78a1.84,1.84,0,0,0,.36,1.8,9,9,0,0,1,2.35,6.39,6.92,6.92,0,0,0,3.85,6.52,15.35,15.35,0,0,0,1.66.86c4.1,1.69,4.21,5.73.75,8.31a27.5,27.5,0,0,1-2.43,1.52l-15,8.91a4.93,4.93,0,0,0-.89.69c-2.06,2-4.27,3.8-7.21,4.41H86.21a9.74,9.74,0,0,1-6.12-5.07,2,2,0,0,0-1.24-.64,60.74,60.74,0,0,0-21.84-.6c-1.8.28-3.62.5-5.41.88a2.71,2.71,0,0,0-1.49,1.05c-2,2.76-4.63,4.13-7.87,3.41a102,102,0,0,1-11.68-3.43,76.55,76.55,0,0,0-13.42-3.17,25.74,25.74,0,0,1-6.13-2c-1.9-.83-2.4-2.37-1.81-4.36a35.27,35.27,0,0,0,1.37-4.65,25.52,25.52,0,0,0,0-4.79,10.22,10.22,0,0,0-.48-1.8c-.86-3.42.25-5.36,3.61-6.32,1.56-.44,3.14-.79,4.68-1.29a8.7,8.7,0,0,0,5.17-4.41,23.91,23.91,0,0,1,2.37-3,1.65,1.65,0,0,0,.4-1.12c-.74-2.85-.11-5.44,1.05-8.09,1.73-4,3.34-8.06,4.75-12.18A47.32,47.32,0,0,1,40,52.26c1.24-1.57,2.3-3.29,3.63-4.77a12.37,12.37,0,0,0,3-9.11c-.21-5.65-.57-11.3-.77-17a32.28,32.28,0,0,1,.93-10c1.56-5.46,5.41-8.51,10.58-10.15C59.06.72,60.78.41,62.46,0ZM87.91,89a34.57,34.57,0,0,0,.38-16.27c-1.76-7.29-4.72-14.17-7.75-21-1.86-4.18-3.93-8.25-5.9-12.37a1.17,1.17,0,0,0-1.82-.62c-1.82.91-3.65,1.8-5.45,2.73C64.89,42.69,62.44,44,60,45.28a3.64,3.64,0,0,1-3.49,0,38.32,38.32,0,0,1-4.29-2.72A31.25,31.25,0,0,1,49.39,40c0,.68,0,1.3,0,1.91a21.76,21.76,0,0,1-3.61,9.84,36,36,0,0,0-3.05,5.67c-1.51,3.6-2.53,7.42-4.29,10.88a32.21,32.21,0,0,0-3.89,12.24c-.28,4,.14,7.76,3.43,10.6,1.48,1.28,3,2.55,4.44,3.83,2.3,2,4.65,3.91,6.85,6a3.54,3.54,0,0,1,.68,4.57,17,17,0,0,1-2.81,2.64c1.45,1.66,3.1,3.58,4.81,5.46a1.61,1.61,0,0,0,1.11.38c3.7-.05,7.4,0,11.08-.24,7.19-.41,12.72-4,17.28-9.33a3.62,3.62,0,0,0,.74-2c.23-3.77.36-7.56.54-11.34A2.07,2.07,0,0,1,84.59,89,28.11,28.11,0,0,1,87.91,89ZM47.64,116.64a13.62,13.62,0,0,0-1.22-3.1c-1.63-2.5-3.56-4.81-5.2-7.31-2.1-3.19-3.92-6.57-6.07-9.74a27.51,27.51,0,0,0-4.32-4.95c-1.74-1.57-3-1.18-4.19.88-.54,1-1.08,2-1.59,3A4.88,4.88,0,0,1,21.76,98c-1.61.4-3.23.78-4.83,1.21-2.68.71-3.17,1.49-2.57,4.21a12.45,12.45,0,0,1-.31,7,23.29,23.29,0,0,0-.75,2.63c-.42,1.85,0,2.66,1.85,3.14a35.16,35.16,0,0,0,3.78.77,51.43,51.43,0,0,1,13.54,3.65A47.41,47.41,0,0,0,40,123.12C43.74,124.08,47.66,121,47.64,116.64ZM88.57,93.06c-1.55-.37-2.17,0-2.14,1.53,0,2.16.22,4.32.27,6.48.11,4.7-1,9.24-1.87,13.82a8.86,8.86,0,0,0,1,6.63c1.29,2,3.17,2.78,5.36,1.79a18,18,0,0,0,4.71-3,37.56,37.56,0,0,1,8.39-6c1.86-.93,3.7-1.91,5.52-2.89a32.09,32.09,0,0,0,3-1.77c1.22-.82,1.25-1.68.1-2.6a11.36,11.36,0,0,0-2.4-1.56,7.33,7.33,0,0,1-4.38-5.54c-.21-1-.16-2.16-.38-3.21a16.62,16.62,0,0,0-.92-2.47c-.36.24-.45.27-.49.34a2.26,2.26,0,0,0-.26.42c-1.91,3.81-5.17,5.47-9.26,5.76-3.21.23-5.18-1.2-5.86-4.33A32.61,32.61,0,0,1,88.57,93.06ZM58.84,42.54l.07.17a19.71,19.71,0,0,0,2.39-.93q4.1-2.25,8.13-4.61c.82-.48,2.27-.76,2-1.91a4,4,0,0,0-2.15-2.13A83.71,83.71,0,0,0,61,30a3.7,3.7,0,0,0-2.8.28c-2.41,1.62-4.67,3.45-6.94,5.27a1.44,1.44,0,0,0-.2,1.24c.51,1.75,5.83,5.66,7.68,5.72ZM70,30.24c1.39.8,1.56.78,2.5-.2A8.77,8.77,0,0,0,73,18.9a5.29,5.29,0,0,0-8.36-.24,8.06,8.06,0,0,0-1.94,7c.32,2,.86,2.57,2.71,2.73a24,24,0,0,1,.45-4.1,2.81,2.81,0,0,1,2.76-2.17,3.11,3.11,0,0,1,2.88,2.21A5.12,5.12,0,0,1,70,30.24ZM54.94,28.47c.78-.46,1.46-.84,2.12-1.26a.94.94,0,0,0,.39-.57,8.75,8.75,0,0,0-1.49-7c-1.78-2.31-4.41-2.33-6.23-.06A8.48,8.48,0,0,0,48,26.06c.27,2.33,1,4.44,3.31,5.74L53,30.37a4.71,4.71,0,0,1-3-6c.27-1,.79-2.07,1.88-2a3.41,3.41,0,0,1,2.22,1.28A5.34,5.34,0,0,1,54.94,28.47Z"/>
  </g>
</svg>
